X: 10491
T: EIRIDH NA FINNACHA' GAELACH.
T: "the REBEL WAR SONG."
Q: "Bold martial time."
%R: air, reel
B: W. Hamilton "Universal Tune-Book" Vol. 1 Glasgow 1844 p.49 #1
S: http://imslp.org/wiki/Hamilton's_Universal_Tune-Book_(Various)
Z: 2016 John Chambers <jc:trillian.mit.edu>
M: C|
L: 1/8
K: D
% %slurgraces yes	% for some but not others
% %graceslurs yes
% - - - - - - - - - - - - - - - - - - - - - - - - -
A |\
F2FA {F}E2DC | D2FA d2ze |\
{d}f2ed {d}c2BA | F2B>^A B2zF |\
{F}A2A>B {B}A2GF | A2Bc Hd2zc |\
{c}B2AF A2A,>C | D2E>C D2z :|
|: A |\
(FA).G.F (EG).F.E | D2FA d2zf |\
{g}f2ed {d}c2BA | F2B>^A B2zF/G/ |\
(Ad)cB (AG)FG | A2Bc Hd2zg |\
f>edB {B}A2A,>C | D2E>C D2z :|
% - - - - - - - - - - - - - - - - - - - - - - - - -

%%sep 1 1 500
%%sep 1 1 500

